X: 16305
T: Gro Weselno Muzyka
R: waltz
M: 3/4
K: Fmajor
F AA2G2|B2GEF2|A c c2c2|{e}f2 dBc2|
w:Gro we-sel-no mu-zy-- ka u są-sia-da hut-ni-ka,
f e Lg2f2|Le2fdc2|B Gc2B2|A2 LGEF2||
w:za-pro-si-li gór-ni--ka, ba-li za-bi-li by--ka.

